X:1
T:Title
%%score { ( 1 3 ) | ( 2 4 ) }
L:1/8
M:3/4
K:G
V:1 treble nm="Grand Piano"
V:3 treble 
V:2 bass 
V:4 bass 
V:1
 z2 z2[Q:1/4=106] [B,D]2 | z2 E2 [CDF]2 | G2- [DG]2 [CFA]2 | B2 d2 [Ec]2 | A4 A2 | c2 B2 A2 | %6
 B2 A2 G2 | e2 d2 B2 |[M:2/4] A4 |[M:1/4] A2 |[M:3/4] A2 B2 d2 | c4 G2 | G2 A2 c2 | B4 [DB]2 | %14
 A2 B2 [Ec]2 | B2 A2 G2 | A4 z2 |[M:2/4] [B,G]4 |] %18
V:2
 z2 z2 G,2 | F,2 E,2 D,2 | C,2 B,,2 A,,2 | G,,2 B,,2 [C,G,]2 | [D,F,D]4 [D,F,D]2 | %5
 [E,G,C]4 [F,CD]2 | [G,D]2- [G,CD]2 [G,B,D]2 | [A,CF]2 [B,DG]2 [^CEG]2 |[M:2/4] [DF]4 | %9
[M:1/4] [DF]2 |[M:3/4] [D=F]4 [^G,B,E]2 | [A,E]4 [CE]2 | [C^D]4[K:bass] [F,A,=D]2 | %13
 [G,D]4 [G,,G,]2 | [C,E,]2 [B,,^G,]2 [A,,A,]2 | [B,,F,]4 [E,G,E]2 | [G,C]4 z2 |[M:2/4] [G,,G,]4 |] %18
V:3
 x6 | [CD]4 z2 | [CE]2 z2 z2 | [B,G]4 z2 | x6 | x6 | x6 | x6 |[M:2/4] x4 |[M:1/4] x2 |[M:3/4] x6 | %11
 x6 | x6 | x6 | E4 z2 | ^D4 z2 | z2 ^D,2 A2 |[M:2/4] x4 |] %18
V:4
 x6 | x6 | x6 | x6 | x6 | x6 | B,2 z2 z2 | x6 |[M:2/4] x4 |[M:1/4] x2 |[M:3/4] x6 | x6 | %12
 x4[K:bass] x2 | x6 | x6 | x6 | E,2 z2 [D,F,C]2 |[M:2/4] x4 |] %18

